!!!OTL: AUF GRUENEN BERGEN WARD GEBOREN
!!!ARE: Europa, Mitteleuropa, Deutschland
!!!SCT: B0336
!!!YEM: Copyright 1995, estate of Helmut Schaffrath.
**kern
*ICvox
*Ivox
*M4/4
*k[f#]
*G:
{8d
8g
8b
=1
4.dd
8cc
4b
4a
=2
8a
8g
4g
8r}
{8g
8a
8b
=3
4cc
4a
4b
4dd
=4
2a
8r}
{8a
8a
8a#
=5
4.b
8b
4b
4a
=6
8a
8g
4g
8r}
{8g
8a
8b
=7
4cc
4a
4g
4f#
=8
2dd
8r}
{8dd
8cc
8b
=9
8a
8ee
8cc
8a
4g
8b
8a
=10
2g
8r}
==
!!!AGN: Trink - Lied
!!!ONB: ESAC (Essen Associative Code) Database: BOEHME
!!!AMT: simple quadruple
!!!AIN: vox
!!!EED: Helmut Schaffrath
!!!EEV: 1.0
*-
